X: 14
T: the Contending Parsons
R: reel
M: C
L: 1/8
Z: 2010,2014 John Chambers <jc:trillian.mit.edu>
B: Longman ed. "Twenty Four Country Dances", p.31 London 1770
K: Gm
   d | BdGe dg2d | cBAG ^F/G/A/F/ D=f | dfcf BfAF | GBcA B3 :|
|: d | =BdG=f ed/c/ zd | ce/d/ c/B/A/G/ ^F3d | ge d^f gedc | BA/G/ D^F G3 :|
% - - - - - - - - - - - - - - - - - - - - - - - - -
%%begintext align
%% Cast of one Cu: and lead thro the 3d and Cast up .|
%% the 2d Cu: do the same .|.
%% 1st Cu: Cross over and figure :|.
%% Right and Left with the Top :|:
%%endtext
% - - - - - - - - - - - - - - - - - - - - - - - - -
